symbols/web/bathroom/materialsymbolsrounded/bathroom_wght500gradN25fill1_48px.svg

<svg xmlns="http://www.w3.org/2000/svg" height="48" width="48"><path d="M7.4 44.05q-1.4 0-2.4-1t-1-2.4V7.3q0-1.35 1-2.35t2.4-1h33.25q1.4 0 2.425 1T44.1 7.3v33.35q0 1.4-1.025 2.4t-2.425 1Zm10.35-8.3q.75 0 1.325-.55t.575-1.35q0-.8-.575-1.375T17.75 31.9q-.8 0-1.375.575T15.8 33.85q0 .8.575 1.35t1.375.55Zm6.3 0q.75 0 1.325-.55t.575-1.35q0-.8-.575-1.375T24.05 31.9q-.8 0-1.375.575T22.1 33.85q0 .8.575 1.35t1.375.55Zm6.3 0q.75 0 1.325-.55t.575-1.35q0-.8-.575-1.375T30.35 31.9q-.8 0-1.375.575T28.4 33.85q0 .8.575 1.35t1.375.55Zm-12.6-6.25q.75 0 1.325-.55t.575-1.35q0-.8-.575-1.375t-1.325-.575q-.8 0-1.375.575T15.8 27.6q0 .8.575 1.35t1.375.55Zm6.3 0q.75 0 1.325-.55t.575-1.35q0-.8-.575-1.375t-1.325-.575q-.8 0-1.375.575T22.1 27.6q0 .8.575 1.35t1.375.55Zm6.3 0q.75 0 1.325-.55t.575-1.35q0-.8-.575-1.375t-1.325-.575q-.8 0-1.375.575T28.4 27.6q0 .8.575 1.35t1.375.55Zm2.35-6.25q.55 0 .95-.375.4-.375.4-.975 0-4.25-2.9-7.125t-7.1-2.875q-4.25 0-7.15 2.875Q14 17.65 14 21.9q0 .6.4.975t1 .375Z"/></svg>

<svg xmlns="http://www.w3.org/2000/svg" height="48" width="48"><path d="M7.4 44.05Q6 44.05 5 43.05Q4 42.05 4 40.65V7.3Q4 5.95 5 4.95Q6 3.95 7.4 3.95H40.65Q42.05 3.95 43.075 4.95Q44.1 5.95 44.1 7.3V40.65Q44.1 42.05 43.075 43.05Q42.05 44.05 40.65 44.05ZM17.75 35.75Q18.5 35.75 19.075 35.2Q19.65 34.65 19.65 33.85Q19.65 33.05 19.075 32.475Q18.5 31.9 17.75 31.9Q16.95 31.9 16.375 32.475Q15.8 33.05 15.8 33.85Q15.8 34.65 16.375 35.2Q16.95 35.75 17.75 35.75ZM24.05 35.75Q24.8 35.75 25.375 35.2Q25.95 34.65 25.95 33.85Q25.95 33.05 25.375 32.475Q24.8 31.9 24.05 31.9Q23.25 31.9 22.675 32.475Q22.1 33.05 22.1 33.85Q22.1 34.65 22.675 35.2Q23.25 35.75 24.05 35.75ZM30.35 35.75Q31.1 35.75 31.675 35.2Q32.25 34.65 32.25 33.85Q32.25 33.05 31.675 32.475Q31.1 31.9 30.35 31.9Q29.55 31.9 28.975 32.475Q28.4 33.05 28.4 33.85Q28.4 34.65 28.975 35.2Q29.55 35.75 30.35 35.75ZM17.75 29.5Q18.5 29.5 19.075 28.95Q19.65 28.4 19.65 27.6Q19.65 26.8 19.075 26.225Q18.5 25.65 17.75 25.65Q16.95 25.65 16.375 26.225Q15.8 26.8 15.8 27.6Q15.8 28.4 16.375 28.95Q16.95 29.5 17.75 29.5ZM24.05 29.5Q24.8 29.5 25.375 28.95Q25.95 28.4 25.95 27.6Q25.95 26.8 25.375 26.225Q24.8 25.65 24.05 25.65Q23.25 25.65 22.675 26.225Q22.1 26.8 22.1 27.6Q22.1 28.4 22.675 28.95Q23.25 29.5 24.05 29.5ZM30.35 29.5Q31.1 29.5 31.675 28.95Q32.25 28.4 32.25 27.6Q32.25 26.8 31.675 26.225Q31.1 25.65 30.35 25.65Q29.55 25.65 28.975 26.225Q28.4 26.8 28.4 27.6Q28.4 28.4 28.975 28.95Q29.55 29.5 30.35 29.5ZM32.7 23.25Q33.25 23.25 33.65 22.875Q34.05 22.5 34.05 21.9Q34.05 17.65 31.15 14.775Q28.25 11.9 24.05 11.9Q19.8 11.9 16.9 14.775Q14 17.65 14 21.9Q14 22.5 14.4 22.875Q14.8 23.25 15.4 23.25Z"/></svg>
